X: 19307
T: Jack Broke Da Prison Door
R: reel
M: 4/4
K: Gmajor
G2 g2 ggdg|eaag ageg|gded BdBA|GBAG E2 D2:|
G2 BG dGBG|A2 Bd e2 ge|G2 BG dGBG|ABAG E2 D2:|

